public/textures/gradientTexture.CUBE
#Generated by wwww.onlinelutcreator.com 
LUT_3D_SIZE 32 
0.094118 0.090196 0.090196
0.098039 0.086275 0.090196
0.094118 0.090196 0.090196
0.094118 0.090196 0.090196
0.094118 0.090196 0.090196
0.094118 0.090196 0.090196
0.098039 0.086275 0.090196
0.094118 0.090196 0.090196
0.094118 0.090196 0.090196
0.090196 0.090196 0.090196
0.094118 0.090196 0.082353
0.094118 0.090196 0.090196
0.094118 0.090196 0.090196
0.094118 0.090196 0.090196
0.094118 0.090196 0.090196
0.094118 0.090196 0.090196
0.098039 0.086275 0.090196
0.094118 0.090196 0.090196
0.094118 0.090196 0.090196
0.094118 0.090196 0.090196
0.098039 0.086275 0.090196
0.094118 0.090196 0.090196
0.098039 0.086275 0.090196
0.094118 0.090196 0.090196
0.094118 0.090196 0.090196
0.094118 0.090196 0.090196
0.094118 0.090196 0.090196
0.094118 0.090196 0.090196
0.094118 0.090196 0.090196
0.098039 0.086275 0.090196
0.098039 0.086275 0.090196
0.094118 0.090196 0.090196
0.090196 0.090196 0.090196
0.098039 0.086275 0.090196
0.094118 0.090196 0.090196
0.094118 0.090196 0.090196
0.094118 0.090196 0.090196
0.094118 0.090196 0.090196
0.094118 0.090196 0.090196
0.094118 0.090196 0.090196
0.098039 0.086275 0.086275
0.094118 0.090196 0.082353
0.098039 0.086275 0.090196
0.094118 0.090196 0.090196
0.094118 0.090196 0.090196
0.094118 0.090196 0.090196
0.094118 0.090196 0.090196
0.094118 0.090196 0.090196
0.094118 0.090196 0.090196
0.094118 0.090196 0.090196
0.094118 0.090196 0.090196
0.094118 0.090196 0.090196
0.094118 0.090196 0.090196
0.094118 0.090196 0.090196
0.098039 0.086275 0.090196
0.090196 0.086275 0.090196
0.094118 0.090196 0.090196
0.094118 0.090196 0.090196
0.094118 0.090196 0.090196
0.090196 0.086275 0.090196
0.094118 0.090196 0.090196
0.094118 0.090196 0.090196
0.094118 0.090196 0.090196
0.094118 0.090196 0.090196
0.094118 0.090196 0.090196
0.094118 0.090196 0.090196
0.094118 0.090196 0.082353
0.094118 0.090196 0.090196
0.094118 0.090196 0.090196
0.094118 0.090196 0.090196
0.094118 0.090196 0.090196
0.094118 0.090196 0.090196
0.094118 0.090196 0.082353
0.094118 0.090196 0.082353
0.094118 0.090196 0.090196
0.094118 0.090196 0.090196
0.094118 0.090196 0.090196
0.098039 0.086275 0.090196
0.094118 0.090196 0.090196
0.098039 0.086275 0.086275
0.094118 0.090196 0.090196
0.094118 0.090196 0.090196
0.094118 0.090196 0.090196
0.094118 0.090196 0.090196
0.090196 0.090196 0.090196
0.090196 0.090196 0.090196
0.094118 0.090196 0.090196
0.094118 0.090196 0.090196
0.090196 0.086275 0.090196
0.094118 0.090196 0.090196
0.094118 0.090196 0.090196
0.094118 0.090196 0.090196
0.094118 0.090196 0.090196
0.094118 0.090196 0.090196
0.094118 0.090196 0.082353
0.094118 0.090196 0.090196
0.094118 0.090196 0.090196
0.094118 0.090196 0.090196
0.098039 0.086275 0.090196
0.094118 0.090196 0.090196
0.094118 0.090196 0.090196
0.094118 0.090196 0.090196
0.094118 0.090196 0.090196
0.094118 0.090196 0.090196
0.094118 0.090196 0.090196
0.094118 0.090196 0.090196
0.094118 0.090196 0.090196
0.094118 0.090196 0.090196
0.094118 0.090196 0.090196
0.094118 0.090196 0.090196
0.094118 0.090196 0.090196
0.094118 0.090196 0.090196
0.094118 0.090196 0.090196
0.094118 0.090196 0.090196
0.094118 0.090196 0.090196
0.094118 0.090196 0.090196
0.094118 0.090196 0.090196
0.094118 0.090196 0.082353
0.094118 0.090196 0.090196
0.094118 0.090196 0.090196
0.094118 0.090196 0.090196
0.094118 0.090196 0.090196
0.098039 0.086275 0.090196
0.094118 0.090196 0.090196
0.094118 0.090196 0.090196
0.094118 0.090196 0.090196
0.090196 0.090196 0.090196
0.094118 0.090196 0.090196
0.094118 0.090196 0.090196
0.094118 0.090196 0.082353
0.094118 0.090196 0.090196
0.094118 0.090196 0.090196
0.094118 0.090196 0.082353
0.094118 0.090196 0.090196
0.094118 0.090196 0.090196
0.094118 0.090196 0.090196
0.094118 0.090196 0.090196
0.094118 0.090196 0.090196
0.094118 0.090196 0.090196
0.094118 0.090196 0.090196
0.094118 0.090196 0.090196
0.094118 0.090196 0.090196
0.090196 0.090196 0.090196
0.094118 0.090196 0.090196
0.094118 0.090196 0.090196
0.094118 0.090196 0.082353
0.098039 0.086275 0.090196
0.094118 0.090196 0.090196
0.094118 0.090196 0.090196
0.094118 0.090196 0.090196
0.094118 0.090196 0.090196
0.094118 0.090196 0.090196
0.094118 0.090196 0.090196
0.098039 0.086275 0.090196
0.094118 0.090196 0.082353
0.094118 0.090196 0.090196
0.094118 0.090196 0.082353
0.094118 0.090196 0.090196
0.098039 0.086275 0.090196
0.094118 0.090196 0.090196
0.094118 0.090196 0.090196
0.094118 0.090196 0.090196
0.094118 0.090196 0.090196
0.094118 0.090196 0.090196
0.094118 0.090196 0.090196
0.094118 0.090196 0.090196
0.094118 0.090196 0.090196
0.094118 0.090196 0.090196
0.090196 0.090196 0.090196
0.094118 0.090196 0.090196
0.094118 0.090196 0.090196
0.094118 0.090196 0.082353
0.094118 0.090196 0.090196
0.094118 0.090196 0.090196
0.094118 0.090196 0.090196
0.094118 0.090196 0.090196
0.094118 0.090196 0.090196
0.094118 0.090196 0.090196
0.094118 0.090196 0.090196
0.094118 0.090196 0.090196
0.094118 0.090196 0.090196
0.094118 0.090196 0.090196
0.101961 0.090196 0.090196
0.094118 0.090196 0.090196
0.094118 0.090196 0.090196
0.094118 0.090196 0.090196
0.094118 0.094118 0.090196
0.094118 0.094118 0.090196
0.094118 0.090196 0.090196
0.094118 0.090196 0.094118
0.094118 0.090196 0.090196
0.094118 0.090196 0.090196
0.094118 0.090196 0.090196
0.094118 0.090196 0.090196
0.101961 0.090196 0.090196
0.094118 0.094118 0.094118
0.094118 0.090196 0.090196
0.101961 0.090196 0.090196
0.094118 0.090196 0.090196
0.094118 0.090196 0.090196
0.101961 0.090196 0.094118
0.094118 0.090196 0.090196
0.101961 0.090196 0.090196
0.094118 0.090196 0.090196
0.094118 0.090196 0.090196
0.101961 0.090196 0.090196
0.094118 0.094118 0.090196
0.094118 0.094118 0.090196
0.094118 0.090196 0.090196
0.094118 0.094118 0.090196
0.101961 0.090196 0.090196
0.101961 0.090196 0.090196
0.094118 0.094118 0.090196
0.094118 0.090196 0.090196
0.101961 0.090196 0.090196
0.101961 0.090196 0.090196
0.094118 0.090196 0.090196
0.094118 0.094118 0.090196
0.094118 0.090196 0.090196
0.098039 0.094118 0.090196
0.094118 0.094118 0.090196
0.094118 0.090196 0.090196
0.094118 0.090196 0.090196
0.094118 0.094118 0.090196
0.101961 0.090196 0.094118
0.094118 0.090196 0.090196
0.094118 0.094118 0.090196
0.094118 0.094118 0.090196
0.094118 0.090196 0.090196
0.101961 0.090196 0.094118
0.094118 0.090196 0.094118
0.094118 0.090196 0.090196
0.094118 0.090196 0.090196
0.094118 0.090196 0.094118
0.098039 0.094118 0.094118
0.094118 0.090196 0.094118
0.094118 0.090196 0.090196
0.101961 0.090196 0.094118
0.094118 0.094118 0.094118
0.094118 0.090196 0.094118
0.094118 0.094118 0.094118
0.098039 0.094118 0.090196
0.101961 0.090196 0.090196
0.094118 0.090196 0.094118
0.101961 0.090196 0.090196
0.094118 0.090196 0.094118
0.094118 0.094118 0.090196
0.101961 0.090196 0.090196
0.094118 0.090196 0.090196
0.094118 0.090196 0.094118
0.098039 0.094118 0.090196
0.094118 0.094118 0.090196
0.094118 0.094118 0.094118
0.101961 0.090196 0.094118
0.101961 0.090196 0.094118
0.098039 0.094118 0.094118
0.098039 0.086275 0.090196
0.094118 0.090196 0.090196
0.094118 0.090196 0.090196
0.094118 0.090196 0.090196
0.094118 0.090196 0.082353
0.094118 0.090196 0.090196
0.094118 0.090196 0.082353
0.094118 0.090196 0.090196
0.094118 0.090196 0.090196
0.094118 0.090196 0.090196
0.094118 0.090196 0.090196
0.094118 0.090196 0.090196
0.094118 0.090196 0.090196
0.094118 0.090196 0.090196
0.094118 0.090196 0.090196
0.094118 0.090196 0.090196
0.094118 0.090196 0.090196
0.094118 0.090196 0.090196
0.094118 0.090196 0.090196
0.094118 0.090196 0.090196
0.090196 0.090196 0.090196
0.094118 0.090196 0.090196
0.098039 0.086275 0.090196
0.094118 0.090196 0.090196
0.094118 0.090196 0.090196
0.090196 0.090196 0.090196
0.094118 0.090196 0.090196
0.094118 0.090196 0.090196
0.094118 0.090196 0.082353
0.094118 0.090196 0.090196
0.094118 0.090196 0.090196
0.098039 0.086275 0.090196
0.090196 0.090196 0.090196
0.094118 0.090196 0.090196
0.094118 0.090196 0.090196
0.094118 0.090196 0.082353
0.094118 0.090196 0.090196
0.094118 0.090196 0.090196
0.094118 0.090196 0.090196
0.094118 0.090196 0.090196
0.094118 0.090196 0.090196
0.094118 0.090196 0.090196
0.090196 0.086275 0.090196
0.094118 0.090196 0.090196
0.094118 0.090196 0.090196
0.094118 0.090196 0.090196
0.094118 0.090196 0.090196
0.094118 0.090196 0.090196
0.094118 0.090196 0.090196
0.098039 0.086275 0.090196
0.094118 0.090196 0.090196
0.098039 0.086275 0.090196
0.090196 0.090196 0.090196
0.094118 0.090196 0.090196
0.094118 0.090196 0.082353
0.094118 0.090196 0.090196
0.094118 0.090196 0.090196
0.094118 0.090196 0.090196
0.090196 0.090196 0.090196
0.094118 0.090196 0.090196
0.094118 0.090196 0.090196
0.090196 0.090196 0.082353
0.094118 0.090196 0.082353
0.094118 0.090196 0.090196
0.094118 0.090196 0.090196
0.094118 0.090196 0.090196
0.094118 0.090196 0.090196
0.094118 0.090196 0.090196
0.094118 0.090196 0.090196
0.094118 0.090196 0.090196
0.094118 0.090196 0.090196
0.094118 0.090196 0.090196
0.094118 0.090196 0.090196
0.094118 0.090196 0.082353
0.094118 0.090196 0.082353
0.094118 0.090196 0.090196
0.094118 0.090196 0.090196
0.094118 0.090196 0.090196
0.094118 0.090196 0.082353
0.090196 0.090196 0.090196
0.094118 0.090196 0.090196
0.094118 0.090196 0.090196
0.094118 0.090196 0.090196
0.094118 0.090196 0.090196
0.094118 0.090196 0.090196
0.094118 0.090196 0.090196
0.094118 0.090196 0.090196
0.094118 0.090196 0.090196
0.094118 0.090196 0.090196
0.090196 0.090196 0.090196
0.094118 0.090196 0.090196
0.094118 0.090196 0.090196
0.098039 0.086275 0.090196
0.094118 0.090196 0.090196
0.094118 0.090196 0.090196
0.094118 0.090196 0.090196
0.094118 0.090196 0.090196
0.094118 0.090196 0.090196
0.094118 0.090196 0.090196
0.094118 0.090196 0.090196
0.094118 0.090196 0.090196
0.094118 0.090196 0.090196
0.094118 0.090196 0.090196
0.094118 0.090196 0.090196
0.098039 0.086275 0.090196
0.094118 0.090196 0.090196
0.094118 0.090196 0.090196
0.094118 0.090196 0.090196
0.094118 0.090196 0.090196
0.098039 0.086275 0.090196
0.094118 0.090196 0.090196
0.098039 0.086275 0.090196
0.094118 0.090196 0.090196
0.094118 0.090196 0.090196
0.094118 0.090196 0.082353
0.094118 0.090196 0.090196
0.094118 0.090196 0.082353
0.094118 0.090196 0.090196
0.094118 0.090196 0.082353
0.098039 0.086275 0.086275
0.094118 0.090196 0.090196
0.094118 0.090196 0.090196
0.094118 0.090196 0.090196
0.098039 0.086275 0.090196
0.094118 0.090196 0.090196
0.094118 0.090196 0.090196
0.094118 0.090196 0.082353
0.094118 0.090196 0.090196
0.094118 0.090196 0.090196
0.094118 0.090196 0.090196
0.094118 0.090196 0.090196
0.094118 0.090196 0.090196
0.094118 0.090196 0.090196
0.098039 0.086275 0.090196
0.094118 0.090196 0.090196
0.094118 0.090196 0.090196
0.094118 0.090196 0.090196
0.094118 0.090196 0.090196
0.094118 0.090196 0.090196
0.098039 0.086275 0.090196
0.094118 0.090196 0.090196
0.098039 0.086275 0.090196
0.094118 0.090196 0.082353
0.098039 0.086275 0.090196
0.094118 0.090196 0.090196
0.094118 0.090196 0.090196
0.094118 0.090196 0.090196
0.094118 0.090196 0.082353
0.094118 0.090196 0.090196
0.094118 0.090196 0.090196
0.090196 0.090196 0.090196
0.094118 0.090196 0.090196
0.094118 0.090196 0.090196
0.098039 0.086275 0.090196
0.094118 0.090196 0.090196
0.094118 0.090196 0.090196
0.094118 0.090196 0.090196
0.094118 0.090196 0.090196
0.094118 0.090196 0.090196
0.094118 0.090196 0.090196
0.094118 0.090196 0.090196
0.094118 0.090196 0.090196
0.094118 0.090196 0.090196
0.094118 0.090196 0.090196
0.094118 0.090196 0.090196
0.094118 0.090196 0.090196
0.094118 0.090196 0.090196
0.094118 0.090196 0.090196
0.094118 0.090196 0.090196
0.094118 0.090196 0.090196
0.094118 0.090196 0.090196
0.094118 0.090196 0.090196
0.094118 0.094118 0.090196
0.094118 0.090196 0.090196
0.094118 0.090196 0.090196
0.094118 0.090196 0.090196
0.094118 0.090196 0.090196
0.101961 0.090196 0.090196
0.094118 0.090196 0.090196
0.094118 0.090196 0.090196
0.094118 0.090196 0.090196
0.094118 0.090196 0.090196
0.094118 0.090196 0.094118
0.094118 0.090196 0.090196
0.094118 0.090196 0.094118
0.094118 0.090196 0.090196
0.098039 0.094118 0.094118
0.094118 0.090196 0.090196
0.101961 0.090196 0.090196
0.094118 0.090196 0.090196
0.094118 0.094118 0.090196
0.094118 0.090196 0.090196
0.094118 0.094118 0.094118
0.094118 0.090196 0.090196
0.094118 0.090196 0.094118
0.094118 0.090196 0.090196
0.094118 0.090196 0.094118
0.094118 0.094118 0.090196
0.094118 0.094118 0.094118
0.094118 0.090196 0.090196
0.094118 0.090196 0.090196
0.094118 0.090196 0.090196
0.101961 0.090196 0.094118
0.098039 0.094118 0.090196
0.098039 0.094118 0.090196
0.094118 0.094118 0.090196
0.094118 0.094118 0.094118
0.098039 0.094118 0.094118
0.094118 0.090196 0.090196
0.098039 0.094118 0.090196
0.101961 0.090196 0.094118
0.094118 0.090196 0.090196
0.094118 0.094118 0.090196
0.098039 0.094118 0.090196
0.094118 0.094118 0.094118
0.101961 0.090196 0.094118
0.101961 0.090196 0.094118
0.094118 0.090196 0.090196
0.094118 0.094118 0.090196
0.098039 0.094118 0.090196
0.098039 0.094118 0.090196
0.098039 0.094118 0.090196
0.098039 0.094118 0.094118
0.098039 0.094118 0.090196
0.094118 0.090196 0.094118
0.101961 0.090196 0.090196
0.098039 0.094118 0.090196
0.094118 0.090196 0.094118
0.101961 0.090196 0.094118
0.098039 0.094118 0.094118
0.098039 0.094118 0.094118
0.098039 0.094118 0.094118
0.098039 0.094118 0.090196
0.098039 0.094118 0.090196
0.094118 0.094118 0.090196
0.098039 0.094118 0.094118
0.094118 0.094118 0.094118
0.094118 0.090196 0.090196
0.101961 0.090196 0.094118
0.098039 0.094118 0.090196
0.094118 0.094118 0.090196
0.101961 0.090196 0.094118
0.101961 0.090196 0.094118
0.094118 0.094118 0.094118
0.094118 0.090196 0.090196
0.098039 0.094118 0.094118
0.101961 0.090196 0.094118
0.094118 0.094118 0.094118
0.094118 0.094118 0.090196
0.101961 0.090196 0.094118
0.098039 0.094118 0.094118
0.098039 0.094118 0.090196
0.098039 0.094118 0.094118
0.094118 0.094118 0.094118
0.098039 0.094118 0.090196
0.101961 0.090196 0.094118
0.094118 0.090196 0.090196
0.094118 0.090196 0.090196
0.094118 0.090196 0.090196
0.098039 0.086275 0.090196
0.094118 0.090196 0.090196
0.094118 0.090196 0.090196
0.094118 0.090196 0.082353
0.094118 0.090196 0.090196
0.094118 0.090196 0.090196
0.098039 0.086275 0.090196
0.094118 0.090196 0.090196
0.094118 0.090196 0.090196
0.094118 0.090196 0.090196
0.098039 0.086275 0.090196
0.094118 0.090196 0.090196
0.094118 0.090196 0.090196
0.094118 0.090196 0.082353
0.094118 0.090196 0.090196
0.094118 0.090196 0.090196
0.098039 0.086275 0.090196
0.094118 0.090196 0.090196
0.094118 0.090196 0.090196
0.094118 0.090196 0.090196
0.094118 0.090196 0.090196
0.094118 0.090196 0.090196
0.098039 0.086275 0.090196
0.098039 0.086275 0.090196
0.094118 0.090196 0.090196
0.094118 0.090196 0.090196
0.094118 0.090196 0.090196
0.090196 0.090196 0.090196
0.098039 0.086275 0.090196
0.094118 0.090196 0.082353
0.094118 0.090196 0.090196
0.094118 0.090196 0.090196
0.094118 0.090196 0.090196
0.094118 0.090196 0.090196
0.098039 0.086275 0.090196
0.094118 0.090196 0.090196
0.094118 0.090196 0.090196
0.094118 0.090196 0.090196
0.094118 0.090196 0.090196
0.094118 0.090196 0.090196
0.094118 0.090196 0.090196
0.098039 0.086275 0.090196
0.094118 0.090196 0.090196
0.094118 0.090196 0.090196
0.098039 0.086275 0.090196
0.094118 0.090196 0.090196
0.098039 0.086275 0.090196
0.090196 0.090196 0.090196
0.094118 0.090196 0.090196
0.098039 0.086275 0.090196
0.094118 0.090196 0.090196
0.094118 0.090196 0.090196
0.094118 0.090196 0.090196
0.094118 0.090196 0.090196
0.094118 0.090196 0.082353
0.094118 0.090196 0.090196
0.094118 0.090196 0.082353
0.094118 0.090196 0.090196
0.094118 0.090196 0.090196
0.094118 0.090196 0.090196
0.094118 0.090196 0.090196
0.094118 0.090196 0.090196
0.098039 0.086275 0.086275
0.098039 0.086275 0.090196
0.094118 0.090196 0.090196
0.094118 0.090196 0.090196
0.098039 0.086275 0.090196
0.094118 0.090196 0.090196
0.094118 0.090196 0.090196
0.094118 0.090196 0.090196
0.094118 0.090196 0.090196
0.090196 0.090196 0.090196
0.098039 0.086275 0.090196
0.094118 0.090196 0.090196
0.094118 0.090196 0.090196
0.094118 0.090196 0.090196
0.094118 0.090196 0.090196
0.094118 0.090196 0.082353
0.094118 0.090196 0.090196
0.094118 0.090196 0.090196
0.094118 0.090196 0.082353
0.094118 0.090196 0.090196
0.094118 0.090196 0.090196
0.094118 0.090196 0.090196
0.090196 0.090196 0.090196
0.094118 0.090196 0.090196
0.094118 0.090196 0.090196
0.094118 0.090196 0.090196
0.094118 0.090196 0.090196
0.094118 0.090196 0.090196
0.094118 0.090196 0.090196
0.094118 0.090196 0.090196
0.094118 0.090196 0.090196
0.098039 0.086275 0.086275
0.094118 0.090196 0.082353
0.094118 0.090196 0.090196
0.094118 0.090196 0.090196
0.094118 0.090196 0.090196
0.094118 0.090196 0.090196
0.094118 0.090196 0.090196
0.098039 0.086275 0.086275
0.094118 0.090196 0.090196
0.094118 0.090196 0.090196
0.094118 0.090196 0.082353
0.098039 0.086275 0.090196
0.098039 0.086275 0.086275
0.094118 0.090196 0.082353
0.094118 0.090196 0.090196
0.090196 0.090196 0.090196
0.098039 0.086275 0.090196
0.094118 0.090196 0.090196
0.098039 0.086275 0.090196
0.090196 0.090196 0.090196
0.094118 0.090196 0.090196
0.094118 0.090196 0.090196
0.094118 0.090196 0.090196
0.094118 0.090196 0.090196
0.094118 0.090196 0.090196
0.094118 0.090196 0.090196
0.098039 0.086275 0.090196
0.094118 0.090196 0.090196
0.094118 0.090196 0.090196
0.094118 0.090196 0.090196
0.090196 0.086275 0.090196
0.094118 0.090196 0.090196
0.094118 0.090196 0.090196
0.094118 0.090196 0.090196
0.094118 0.090196 0.090196
0.094118 0.090196 0.090196
0.098039 0.086275 0.090196
0.094118 0.090196 0.090196
0.094118 0.090196 0.090196
0.094118 0.090196 0.090196
0.094118 0.090196 0.090196
0.094118 0.090196 0.090196
0.094118 0.090196 0.090196
0.094118 0.090196 0.090196
0.094118 0.090196 0.090196
0.094118 0.090196 0.090196
0.094118 0.090196 0.090196
0.094118 0.090196 0.090196
0.094118 0.090196 0.090196
0.094118 0.090196 0.090196
0.094118 0.090196 0.090196
0.094118 0.090196 0.090196
0.094118 0.090196 0.090196
0.094118 0.090196 0.090196
0.094118 0.090196 0.090196
0.094118 0.090196 0.090196
0.094118 0.090196 0.090196
0.094118 0.090196 0.090196
0.094118 0.090196 0.094118
0.094118 0.090196 0.090196
0.094118 0.090196 0.090196
0.094118 0.090196 0.090196
0.094118 0.090196 0.090196
0.094118 0.090196 0.090196
0.094118 0.090196 0.090196
0.094118 0.090196 0.090196
0.094118 0.090196 0.090196
0.094118 0.090196 0.090196
0.101961 0.090196 0.090196
0.094118 0.090196 0.090196
0.094118 0.090196 0.090196
0.098039 0.094118 0.090196
0.094118 0.090196 0.090196
0.094118 0.090196 0.090196
0.094118 0.094118 0.090196
0.101961 0.090196 0.090196
0.094118 0.090196 0.094118
0.094118 0.090196 0.090196
0.101961 0.090196 0.090196
0.094118 0.094118 0.094118
0.101961 0.090196 0.090196
0.094118 0.090196 0.090196
0.094118 0.090196 0.090196
0.094118 0.090196 0.090196
0.094118 0.090196 0.094118
0.094118 0.090196 0.090196
0.094118 0.090196 0.090196
0.094118 0.090196 0.094118
0.101961 0.090196 0.094118
0.094118 0.090196 0.090196
0.094118 0.094118 0.090196
0.094118 0.094118 0.094118
0.101961 0.090196 0.094118
0.098039 0.094118 0.094118
0.098039 0.094118 0.094118
0.094118 0.090196 0.090196
0.094118 0.094118 0.090196
0.094118 0.090196 0.094118
0.094118 0.090196 0.090196
0.094118 0.090196 0.090196
0.098039 0.094118 0.090196
0.094118 0.090196 0.094118
0.098039 0.094118 0.090196
0.098039 0.094118 0.090196
0.094118 0.094118 0.090196
0.094118 0.090196 0.094118
0.094118 0.090196 0.094118
0.094118 0.094118 0.094118
0.101961 0.090196 0.090196
0.098039 0.094118 0.094118
0.094118 0.090196 0.090196
0.098039 0.094118 0.094118
0.098039 0.094118 0.090196
0.094118 0.090196 0.090196
0.101961 0.090196 0.090196
0.098039 0.094118 0.090196
0.101961 0.090196 0.094118
0.098039 0.094118 0.094118
0.098039 0.094118 0.094118
0.098039 0.094118 0.094118
0.094118 0.094118 0.094118
0.094118 0.094118 0.090196
0.098039 0.094118 0.094118
0.094118 0.090196 0.090196
0.101961 0.090196 0.090196
0.098039 0.094118 0.094118
0.094118 0.090196 0.094118
0.094118 0.094118 0.090196
0.098039 0.094118 0.094118
0.098039 0.094118 0.094118
0.094118 0.094118 0.094118
0.094118 0.094118 0.090196
0.101961 0.090196 0.094118
0.098039 0.094118 0.090196
0.094118 0.090196 0.090196
0.101961 0.090196 0.090196
0.094118 0.094118 0.090196
0.098039 0.094118 0.094118
0.094118 0.094118 0.094118
0.101961 0.090196 0.094118
0.101961 0.090196 0.090196
0.098039 0.094118 0.094118
0.098039 0.094118 0.090196
0.098039 0.094118 0.094118
0.098039 0.094118 0.094118
0.094118 0.090196 0.094118
0.098039 0.094118 0.090196
0.101961 0.090196 0.094118
0.094118 0.094118 0.094118
0.098039 0.094118 0.090196
0.098039 0.094118 0.094118
0.098039 0.094118 0.094118
0.098039 0.094118 0.094118
0.101961 0.090196 0.094118
0.101961 0.090196 0.090196
0.101961 0.090196 0.094118
0.098039 0.094118 0.090196
0.098039 0.094118 0.094118
0.098039 0.094118 0.094118
0.098039 0.094118 0.094118
0.094118 0.090196 0.090196
0.094118 0.090196 0.082353
0.094118 0.090196 0.082353
0.094118 0.090196 0.090196
0.094118 0.090196 0.090196
0.094118 0.090196 0.082353
0.094118 0.090196 0.090196
0.094118 0.090196 0.090196
0.094118 0.090196 0.090196
0.094118 0.090196 0.090196
0.094118 0.090196 0.090196
0.098039 0.086275 0.090196
0.090196 0.086275 0.090196
0.094118 0.090196 0.090196
0.094118 0.090196 0.090196
0.098039 0.086275 0.090196
0.094118 0.090196 0.090196
0.094118 0.090196 0.090196
0.094118 0.090196 0.090196
0.094118 0.090196 0.082353
0.094118 0.090196 0.090196
0.094118 0.090196 0.090196
0.094118 0.090196 0.090196
0.094118 0.090196 0.090196
0.094118 0.090196 0.090196
0.094118 0.090196 0.090196
0.094118 0.090196 0.090196
0.094118 0.090196 0.090196
0.094118 0.090196 0.090196
0.094118 0.090196 0.082353
0.094118 0.090196 0.090196
0.094118 0.090196 0.090196
0.094118 0.090196 0.090196
0.094118 0.090196 0.090196
0.094118 0.090196 0.090196
0.094118 0.090196 0.090196
0.098039 0.086275 0.090196
0.094118 0.090196 0.090196
0.090196 0.090196 0.090196
0.094118 0.090196 0.090196
0.094118 0.090196 0.090196
0.090196 0.090196 0.090196
0.098039 0.086275 0.090196
0.094118 0.090196 0.090196
0.098039 0.086275 0.090196
0.094118 0.090196 0.090196
0.094118 0.090196 0.090196
0.094118 0.090196 0.090196
0.094118 0.090196 0.090196
0.094118 0.090196 0.090196
0.094118 0.090196 0.082353
0.094118 0.090196 0.090196
0.094118 0.090196 0.090196
0.098039 0.086275 0.090196
0.094118 0.090196 0.090196
0.098039 0.086275 0.090196
0.094118 0.090196 0.090196
0.098039 0.086275 0.090196
0.094118 0.090196 0.090196
0.094118 0.090196 0.090196
0.094118 0.090196 0.090196
0.094118 0.090196 0.090196
0.094118 0.090196 0.090196
0.094118 0.090196 0.090196
0.094118 0.090196 0.090196
0.094118 0.090196 0.090196
0.090196 0.090196 0.090196
0.094118 0.090196 0.090196
0.094118 0.090196 0.090196
0.094118 0.090196 0.090196
0.094118 0.090196 0.090196
0.094118 0.090196 0.090196
0.094118 0.090196 0.082353
0.090196 0.090196 0.090196
0.094118 0.090196 0.090196
0.098039 0.086275 0.090196
0.094118 0.090196 0.090196
0.090196 0.086275 0.090196
0.094118 0.090196 0.090196
0.094118 0.090196 0.090196
0.094118 0.090196 0.090196
0.094118 0.090196 0.090196
0.094118 0.090196 0.090196
0.094118 0.090196 0.090196
0.094118 0.090196 0.090196
0.094118 0.090196 0.090196
0.094118 0.090196 0.090196
0.094118 0.090196 0.090196
0.094118 0.090196 0.090196
0.094118 0.090196 0.082353
0.094118 0.090196 0.090196
0.094118 0.090196 0.090196
0.094118 0.090196 0.090196
0.098039 0.086275 0.090196
0.094118 0.090196 0.090196
0.094118 0.090196 0.082353
0.094118 0.090196 0.090196
0.094118 0.090196 0.090196
0.094118 0.090196 0.090196
0.098039 0.086275 0.086275
0.094118 0.090196 0.090196
0.094118 0.090196 0.090196
0.098039 0.086275 0.090196
0.094118 0.090196 0.090196
0.094118 0.090196 0.090196
0.094118 0.090196 0.090196
0.090196 0.090196 0.090196
0.094118 0.090196 0.082353
0.094118 0.090196 0.090196
0.094118 0.090196 0.090196
0.094118 0.090196 0.090196
0.094118 0.090196 0.090196
0.090196 0.090196 0.082353
0.094118 0.090196 0.090196
0.094118 0.090196 0.090196
0.094118 0.090196 0.090196
0.090196 0.086275 0.090196
0.094118 0.090196 0.090196
