public/textures/gradientTexture.CUBE
#Generated by wwww.onlinelutcreator.com 
LUT_3D_SIZE 8 
DOMAIN_MIN 0.000000 0.000000 0.000000
DOMAIN_MAX 0.903226 0.903226 0.903226
0.094118 0.090196 0.090196
0.094118 0.090196 0.090196
0.094118 0.090196 0.090196
0.094118 0.090196 0.090196
0.098039 0.086275 0.090196
0.098039 0.086275 0.090196
0.094118 0.090196 0.090196
0.094118 0.090196 0.090196
0.094118 0.090196 0.090196
0.094118 0.090196 0.082353
0.094118 0.090196 0.090196
0.094118 0.090196 0.090196
0.094118 0.090196 0.090196
0.094118 0.090196 0.090196
0.094118 0.090196 0.090196
0.094118 0.090196 0.082353
0.098039 0.086275 0.090196
0.094118 0.090196 0.082353
0.094118 0.090196 0.090196
0.094118 0.090196 0.090196
0.094118 0.090196 0.090196
0.090196 0.090196 0.090196
0.094118 0.090196 0.090196
0.094118 0.090196 0.082353
0.094118 0.090196 0.090196
0.094118 0.090196 0.090196
0.094118 0.090196 0.090196
0.094118 0.090196 0.090196
0.094118 0.090196 0.090196
0.094118 0.090196 0.090196
0.094118 0.090196 0.090196
0.094118 0.090196 0.090196
0.094118 0.090196 0.090196
0.094118 0.090196 0.090196
0.094118 0.090196 0.090196
0.094118 0.090196 0.090196
0.094118 0.090196 0.082353
0.094118 0.090196 0.090196
0.094118 0.090196 0.090196
0.094118 0.090196 0.090196
0.094118 0.090196 0.090196
0.098039 0.086275 0.090196
0.094118 0.090196 0.090196
0.094118 0.090196 0.090196
0.094118 0.090196 0.090196
0.094118 0.090196 0.090196
0.094118 0.090196 0.090196
0.094118 0.090196 0.090196
0.094118 0.090196 0.090196
0.094118 0.090196 0.090196
0.094118 0.090196 0.090196
0.090196 0.086275 0.090196
0.094118 0.090196 0.090196
0.094118 0.090196 0.090196
0.094118 0.090196 0.090196
0.094118 0.090196 0.090196
0.094118 0.090196 0.090196
0.094118 0.090196 0.090196
0.094118 0.090196 0.090196
0.101961 0.090196 0.090196
0.094118 0.094118 0.090196
0.094118 0.090196 0.090196
0.094118 0.090196 0.094118
0.101961 0.090196 0.094118
0.098039 0.094118 0.094118
0.098039 0.094118 0.094118
0.098039 0.094118 0.090196
0.098039 0.094118 0.094118
0.098039 0.094118 0.094118
0.098039 0.094118 0.090196
0.094118 0.094118 0.094118
0.098039 0.094118 0.094118
0.105882 0.098039 0.098039
0.105882 0.098039 0.098039
0.105882 0.098039 0.098039
0.105882 0.098039 0.098039
0.105882 0.098039 0.098039
0.105882 0.098039 0.101961
0.105882 0.098039 0.098039
0.105882 0.098039 0.098039
0.098039 0.094118 0.094118
0.098039 0.094118 0.094118
0.098039 0.094118 0.094118
0.101961 0.090196 0.094118
0.098039 0.094118 0.094118
0.098039 0.094118 0.098039
0.098039 0.094118 0.094118
0.098039 0.094118 0.094118
0.105882 0.098039 0.098039
0.109804 0.098039 0.098039
0.109804 0.098039 0.098039
0.109804 0.101961 0.098039
0.101961 0.101961 0.098039
0.105882 0.098039 0.101961
0.101961 0.101961 0.098039
0.105882 0.098039 0.098039
0.098039 0.094118 0.094118
0.098039 0.094118 0.094118
0.098039 0.094118 0.094118
0.098039 0.094118 0.094118
0.098039 0.094118 0.094118
0.105882 0.094118 0.094118
0.098039 0.094118 0.094118
0.098039 0.098039 0.094118
0.105882 0.098039 0.098039
0.105882 0.098039 0.098039
0.109804 0.101961 0.098039
0.105882 0.098039 0.098039
0.105882 0.098039 0.098039
0.105882 0.098039 0.101961
0.109804 0.101961 0.101961
0.101961 0.101961 0.098039
0.098039 0.094118 0.094118
0.105882 0.094118 0.094118
0.098039 0.098039 0.098039
0.098039 0.098039 0.094118
0.098039 0.098039 0.094118
0.105882 0.094118 0.094118
0.098039 0.098039 0.094118
0.098039 0.094118 0.098039
0.105882 0.098039 0.098039
0.105882 0.098039 0.101961
0.101961 0.101961 0.098039
0.109804 0.101961 0.098039
0.109804 0.101961 0.101961
0.109804 0.098039 0.101961
0.109804 0.101961 0.101961
0.101961 0.101961 0.098039
0.109804 0.101961 0.105882
0.109804 0.101961 0.101961
0.109804 0.101961 0.101961
0.109804 0.101961 0.105882
0.109804 0.101961 0.105882
0.113725 0.105882 0.105882
0.109804 0.101961 0.105882
0.113725 0.105882 0.101961
0.117647 0.109804 0.109804
0.117647 0.109804 0.109804
0.117647 0.105882 0.105882
0.117647 0.109804 0.109804
0.117647 0.109804 0.109804
0.117647 0.109804 0.109804
0.117647 0.117647 0.109804
0.117647 0.109804 0.109804
0.113725 0.105882 0.105882
0.113725 0.101961 0.101961
0.109804 0.101961 0.101961
0.113725 0.105882 0.101961
0.113725 0.101961 0.105882
0.113725 0.105882 0.101961
0.113725 0.105882 0.101961
0.113725 0.105882 0.101961
0.117647 0.109804 0.109804
0.117647 0.109804 0.109804
0.117647 0.109804 0.109804
0.117647 0.117647 0.109804
0.117647 0.109804 0.109804
0.117647 0.109804 0.109804
0.117647 0.109804 0.117647
0.117647 0.117647 0.117647
0.113725 0.101961 0.101961
0.105882 0.105882 0.105882
0.105882 0.105882 0.105882
0.113725 0.101961 0.101961
0.113725 0.101961 0.105882
0.113725 0.105882 0.105882
0.113725 0.105882 0.105882
0.113725 0.105882 0.105882
0.117647 0.109804 0.109804
0.117647 0.109804 0.117647
0.117647 0.109804 0.117647
0.117647 0.109804 0.117647
0.117647 0.109804 0.109804
0.125490 0.109804 0.109804
0.117647 0.109804 0.109804
0.117647 0.117647 0.117647
0.113725 0.105882 0.105882
0.113725 0.105882 0.101961
0.113725 0.105882 0.105882
0.113725 0.105882 0.105882
0.113725 0.105882 0.105882
0.113725 0.105882 0.105882
0.117647 0.109804 0.105882
0.109804 0.109804 0.105882
0.117647 0.109804 0.117647
0.117647 0.109804 0.117647
0.117647 0.117647 0.117647
0.117647 0.109804 0.109804
0.121569 0.117647 0.109804
0.121569 0.117647 0.109804
0.117647 0.109804 0.117647
0.121569 0.117647 0.109804
0.121569 0.117647 0.121569
0.121569 0.121569 0.121569
0.125490 0.121569 0.117647
0.125490 0.121569 0.121569
0.125490 0.121569 0.121569
0.125490 0.121569 0.121569
0.125490 0.121569 0.121569
0.125490 0.121569 0.121569
0.129412 0.125490 0.129412
0.129412 0.129412 0.125490
0.137255 0.129412 0.125490
0.129412 0.129412 0.129412
0.129412 0.125490 0.129412
0.137255 0.125490 0.125490
0.129412 0.129412 0.125490
0.129412 0.129412 0.125490
0.121569 0.117647 0.121569
0.125490 0.121569 0.121569
0.125490 0.121569 0.121569
0.125490 0.121569 0.117647
0.125490 0.121569 0.121569
0.125490 0.121569 0.121569
0.125490 0.121569 0.125490
0.125490 0.121569 0.121569
0.129412 0.129412 0.129412
0.137255 0.125490 0.129412
0.129412 0.129412 0.125490
0.137255 0.129412 0.129412
0.129412 0.125490 0.129412
0.137255 0.129412 0.129412
0.129412 0.125490 0.125490
0.137255 0.125490 0.129412
0.125490 0.121569 0.121569
0.125490 0.121569 0.121569
0.125490 0.121569 0.125490
0.125490 0.121569 0.121569
0.125490 0.121569 0.121569
0.125490 0.121569 0.121569
0.129412 0.125490 0.121569
0.133333 0.121569 0.125490
0.137255 0.125490 0.129412
0.137255 0.125490 0.129412
0.129412 0.129412 0.129412
0.137255 0.129412 0.129412
0.137255 0.129412 0.125490
0.129412 0.129412 0.129412
0.129412 0.129412 0.129412
0.137255 0.129412 0.129412
0.125490 0.121569 0.121569
0.125490 0.121569 0.121569
0.133333 0.121569 0.121569
0.129412 0.125490 0.121569
0.125490 0.121569 0.121569
0.125490 0.121569 0.125490
0.125490 0.121569 0.125490
0.133333 0.121569 0.121569
0.137255 0.129412 0.125490
0.137255 0.129412 0.125490
0.137255 0.129412 0.129412
0.137255 0.129412 0.129412
0.137255 0.129412 0.129412
0.137255 0.129412 0.129412
0.137255 0.129412 0.133333
0.141176 0.133333 0.129412
0.137255 0.137255 0.133333
0.141176 0.133333 0.133333
0.137255 0.137255 0.133333
0.141176 0.133333 0.137255
0.141176 0.133333 0.137255
0.137255 0.137255 0.133333
0.137255 0.137255 0.137255
0.145098 0.137255 0.137255
0.149020 0.149020 0.149020
0.149020 0.141176 0.141176
0.149020 0.141176 0.149020
0.149020 0.141176 0.149020
0.149020 0.141176 0.141176
0.149020 0.141176 0.141176
0.149020 0.149020 0.141176
0.152941 0.149020 0.149020
0.137255 0.137255 0.133333
0.137255 0.137255 0.133333
0.141176 0.133333 0.137255
0.145098 0.133333 0.137255
0.145098 0.133333 0.137255
0.145098 0.133333 0.133333
0.145098 0.137255 0.137255
0.137255 0.137255 0.137255
0.149020 0.141176 0.141176
0.152941 0.141176 0.149020
0.149020 0.149020 0.149020
0.149020 0.149020 0.149020
0.152941 0.149020 0.149020
0.149020 0.149020 0.149020
0.152941 0.149020 0.149020
0.152941 0.141176 0.149020
0.145098 0.137255 0.137255
0.145098 0.137255 0.137255
0.145098 0.137255 0.137255
0.137255 0.137255 0.137255
0.145098 0.137255 0.137255
0.145098 0.137255 0.137255
0.145098 0.137255 0.137255
0.145098 0.137255 0.137255
0.149020 0.149020 0.141176
0.152941 0.149020 0.149020
0.152941 0.149020 0.149020
0.152941 0.141176 0.149020
0.149020 0.149020 0.149020
0.152941 0.149020 0.149020
0.149020 0.149020 0.149020
0.152941 0.149020 0.149020
0.145098 0.137255 0.137255
0.145098 0.137255 0.137255
0.145098 0.137255 0.137255
0.145098 0.137255 0.137255
0.145098 0.137255 0.137255
0.141176 0.141176 0.141176
0.149020 0.137255 0.141176
0.145098 0.137255 0.141176
0.152941 0.149020 0.149020
0.152941 0.149020 0.149020
0.152941 0.149020 0.149020
0.152941 0.152941 0.145098
0.152941 0.149020 0.149020
0.152941 0.149020 0.149020
0.152941 0.152941 0.152941
0.160784 0.149020 0.152941
0.156863 0.156863 0.152941
0.156863 0.152941 0.152941
0.156863 0.156863 0.152941
0.164706 0.152941 0.152941
0.164706 0.152941 0.152941
0.156863 0.156863 0.156863
0.156863 0.156863 0.152941
0.160784 0.156863 0.156863
0.172549 0.164706 0.160784
0.172549 0.164706 0.160784
0.164706 0.160784 0.164706
0.164706 0.164706 0.160784
0.164706 0.164706 0.160784
0.164706 0.164706 0.164706
0.172549 0.164706 0.164706
0.164706 0.164706 0.164706
0.156863 0.156863 0.156863
0.156863 0.156863 0.156863
0.164706 0.152941 0.156863
0.160784 0.156863 0.156863
0.160784 0.156863 0.156863
0.156863 0.156863 0.156863
0.156863 0.156863 0.156863
0.160784 0.156863 0.156863
0.172549 0.164706 0.164706
0.172549 0.164706 0.164706
0.172549 0.164706 0.164706
0.172549 0.164706 0.164706
0.164706 0.164706 0.164706
0.172549 0.164706 0.168627
0.168627 0.168627 0.168627
0.172549 0.164706 0.164706
0.160784 0.156863 0.156863
0.160784 0.156863 0.156863
0.160784 0.156863 0.156863
0.160784 0.156863 0.156863
0.160784 0.156863 0.160784
0.160784 0.160784 0.160784
0.160784 0.156863 0.156863
0.164706 0.160784 0.160784
0.172549 0.164706 0.164706
0.168627 0.168627 0.164706
0.172549 0.164706 0.164706
0.172549 0.164706 0.164706
0.176471 0.168627 0.164706
0.176471 0.168627 0.168627
0.172549 0.164706 0.168627
0.168627 0.168627 0.164706
0.160784 0.156863 0.160784
0.160784 0.156863 0.156863
0.160784 0.160784 0.156863
0.160784 0.156863 0.156863
0.160784 0.160784 0.160784
0.164706 0.160784 0.160784
0.160784 0.160784 0.156863
0.168627 0.156863 0.160784
0.172549 0.164706 0.164706
0.168627 0.168627 0.164706
0.176471 0.168627 0.164706
0.168627 0.168627 0.164706
0.168627 0.168627 0.168627
0.176471 0.168627 0.168627
0.172549 0.164706 0.168627
0.168627 0.168627 0.164706
0.180392 0.172549 0.168627
0.180392 0.172549 0.172549
0.180392 0.172549 0.172549
0.176471 0.176471 0.172549
0.180392 0.172549 0.172549
0.180392 0.172549 0.172549
0.180392 0.172549 0.172549
0.180392 0.172549 0.176471
0.180392 0.180392 0.188235
0.188235 0.180392 0.180392
0.188235 0.180392 0.180392
0.188235 0.180392 0.180392
0.188235 0.180392 0.180392
0.188235 0.188235 0.180392
0.192157 0.188235 0.180392
0.192157 0.188235 0.188235
0.180392 0.172549 0.176471
0.176471 0.176471 0.176471
0.180392 0.172549 0.172549
0.176471 0.176471 0.172549
0.176471 0.176471 0.172549
0.176471 0.176471 0.176471
0.176471 0.176471 0.176471
0.184314 0.176471 0.176471
0.188235 0.188235 0.180392
0.188235 0.180392 0.180392
0.192157 0.180392 0.188235
0.188235 0.188235 0.188235
0.188235 0.188235 0.180392
0.188235 0.188235 0.188235
0.188235 0.188235 0.188235
0.188235 0.188235 0.188235
0.180392 0.172549 0.172549
0.176471 0.176471 0.176471
0.180392 0.172549 0.172549
0.184314 0.176471 0.172549
0.184314 0.176471 0.176471
0.176471 0.176471 0.176471
0.184314 0.172549 0.176471
0.184314 0.172549 0.176471
0.192157 0.188235 0.188235
0.192157 0.180392 0.188235
0.192157 0.188235 0.188235
0.188235 0.188235 0.188235
0.192157 0.180392 0.188235
0.192157 0.188235 0.188235
0.188235 0.188235 0.188235
0.192157 0.188235 0.188235
0.180392 0.172549 0.172549
0.184314 0.176471 0.176471
0.184314 0.176471 0.176471
0.184314 0.176471 0.176471
0.184314 0.176471 0.176471
0.184314 0.176471 0.176471
0.184314 0.176471 0.176471
0.180392 0.180392 0.176471
0.192157 0.188235 0.188235
0.188235 0.188235 0.188235
0.192157 0.188235 0.188235
0.192157 0.188235 0.192157
0.192157 0.188235 0.192157
0.192157 0.192157 0.184314
0.192157 0.188235 0.192157
0.192157 0.188235 0.192157
0.196078 0.196078 0.192157
0.196078 0.192157 0.196078
0.200000 0.196078 0.192157
0.196078 0.196078 0.196078
0.200000 0.196078 0.192157
0.196078 0.196078 0.196078
0.196078 0.196078 0.196078
0.200000 0.196078 0.196078
0.207843 0.203922 0.203922
0.207843 0.203922 0.203922
0.203922 0.203922 0.203922
0.203922 0.203922 0.203922
0.207843 0.203922 0.203922
0.207843 0.203922 0.203922
0.207843 0.207843 0.203922
0.207843 0.203922 0.203922
0.196078 0.196078 0.196078
0.200000 0.196078 0.196078
0.200000 0.196078 0.196078
0.196078 0.196078 0.196078
0.196078 0.196078 0.196078
0.196078 0.196078 0.196078
0.200000 0.200000 0.196078
0.200000 0.196078 0.196078
0.207843 0.203922 0.203922
0.207843 0.203922 0.203922
0.207843 0.203922 0.203922
0.207843 0.203922 0.207843
0.207843 0.203922 0.207843
0.207843 0.203922 0.203922
0.207843 0.203922 0.203922
0.215686 0.207843 0.207843
0.200000 0.196078 0.196078
0.200000 0.196078 0.196078
0.200000 0.196078 0.196078
0.200000 0.200000 0.196078
0.200000 0.200000 0.196078
0.207843 0.196078 0.196078
0.200000 0.200000 0.200000
0.200000 0.196078 0.200000
0.207843 0.203922 0.203922
0.207843 0.207843 0.207843
0.215686 0.203922 0.203922
0.215686 0.203922 0.207843
0.207843 0.207843 0.203922
0.207843 0.207843 0.207843
0.215686 0.207843 0.207843
0.215686 0.207843 0.207843
0.200000 0.196078 0.196078
0.200000 0.196078 0.200000
0.200000 0.196078 0.196078
0.200000 0.200000 0.196078
0.200000 0.200000 0.200000
0.203922 0.200000 0.200000
0.200000 0.200000 0.200000
0.203922 0.200000 0.200000
0.207843 0.203922 0.203922
0.207843 0.207843 0.207843
0.215686 0.207843 0.207843
0.207843 0.207843 0.207843
0.207843 0.207843 0.207843
0.215686 0.207843 0.207843
0.207843 0.207843 0.207843
0.215686 0.207843 0.211765
